X:1
T:[ID 5-10b]
T:[ID 5-10b]
T:Bezeichnung standardisiert: Vetter Michel; Broeder Michel; Tanz Feder Michel In anderer Quelle: Broeder Miggel - Hs. Musicq boek, ab 1740 (Anm. S. Wascher);  Tanz Feder Michel - Dahlhoff 1773  (Anm. S. Wascher);  Vetter Michel - Hs. Wernigerode 1786 (Anm. S. Wascher);  Vedder Michel - Das kleine dicke Liederbuch 1989 (Anm. S. Wascher); \"Ahnlich in anderer Quelle: 1. in C - Drey\sser 1720 (Anm. S. Wascher);
T:Urheber unbekannt Erstbeleg: ab 1720 (Datum in der schriftlichen Quelle) Datum in der hier transkribierten schriftlichen Quelle: 1773
C:Urheber unbekannt
C:Erstbeleg: ab 1720 (Datum in der schriftlichen Quelle)
C:Datum in der hier transkribierten schriftlichen Quelle: 1773
L:1/8
M:4/4
K:G
V:1 treble 
V:1
 B2 AB G2 AB | c2 Bc A2 Bc | d2 D2 E2 F2 | G2 D2 B,2 G,2 :: d2 d2 d2 cd | e2 e2 e4 | f2 ef d2 ef | %7
 g2 d2 d4 | B2 AB G2 AB | c2 Bc A2 Bc | d2 D2 E2 F2 | G2 D2 B,2 G,2 :| %12

